images_sukapura_svg/cmd/32/setoptimalrowheight.svg

<svg viewBox="0 0 32 32" xmlns="http://www.w3.org/2000/svg" xmlns:xlink="http://www.w3.org/1999/xlink"><linearGradient id="a" gradientTransform="translate(75 -7)" gradientUnits="userSpaceOnUse" x1="14" x2="13.79661" y1="22" y2="2.135593"><stop offset="0" stop-color="#0040dd"/><stop offset="1" stop-color="#0a84ff"/></linearGradient><linearGradient id="b" gradientUnits="userSpaceOnUse" x1="16.197517" x2="16.134514" xlink:href="#a" y1="12.062451" y2="2.124951"/><linearGradient id="c" gradientTransform="translate(0 -16.001062)" gradientUnits="userSpaceOnUse" x1="16.197517" x2="16.009514" xlink:href="#a" y1="1.562451" y2="11.249951"/><g transform="matrix(1 0 0 -1 0 16.000042)"><path d="m16.023438-14.001062a.99869039.99869039 0 0 0 -.720704.292969l-5 4.9999999a.99869039.99869039 0 0 0 .707032 1.7050785h2.990234v2.001953c0 .554.446 1 1 1h2c.554 0 1-.446 1-1v-2.001953h3.009766a.99869039.99869039 0 0 0 .707031-1.7050785l-5-4.9999999a.99869039.99869039 0 0 0 -.693359-.292969z" fill="url(#c)"/><path d="m16.0101 5.0118852v7.9762718" fill="none" stroke="#4d82b8" stroke-linecap="round" stroke-width="1.997637"/><path d="m16.023438 2a.99869039.99869039 0 0 0 -.720704.2929688l-5 5a.99869039.99869039 0 0 0 .707032 1.7050781h2.990234v2.0019531c0 .554.446 1 1 1h2c.554 0 1-.446 1-1v-2.0019531h3.009766a.99869039.99869039 0 0 0 .707031-1.7050781l-5-5a.99869039.99869039 0 0 0 -.693359-.2929688z" fill="url(#b)" transform="matrix(1 0 0 -1 0 16.000042)"/></g><path d="m4 13v6h24v-6z" fill="#fff"/><path d="m3 13v6h1 5 1 5 1 5 1 6 1v-6h-1-6-1-5-1-5-1-5zm1 1h5 1 5 1 5 1 6v4h-6-1-5-1-5-1-5z" fill="#69696e"/><path d="m9 14v4h1v-4zm6 0v4h1v-4zm6 0v4h1v-4z" fill="#bababa"/></svg>

<?xml version="1.0" encoding="UTF-8" standalone="no"?>
<svg
   xmlns:dc="http://purl.org/dc/elements/1.1/"
   xmlns:cc="http://creativecommons.org/ns#"
   xmlns:rdf="http://www.w3.org/1999/02/22-rdf-syntax-ns#"
   xmlns:svg="http://www.w3.org/2000/svg"
   xmlns="http://www.w3.org/2000/svg"
   xmlns:xlink="http://www.w3.org/1999/xlink"
   xmlns:sodipodi="http://sodipodi.sourceforge.net/DTD/sodipodi-0.dtd"
   xmlns:inkscape="http://www.inkscape.org/namespaces/inkscape"
   viewBox="0 0 32 32"
   version="1.1"
   id="svg18"
   sodipodi:docname="setoptimalrowheight.svg"
   inkscape:version="0.92.3 (unknown)"
   inkscape:export-filename="/home/rizmut/Dokumen/Rizmut/Github/libreoffice-style-sukapura/images_sukapura/cmd/32/setoptimalrowheight.png"
   inkscape:export-xdpi="96"
   inkscape:export-ydpi="96">
  <metadata
     id="metadata24">
    <rdf:RDF>
      <cc:Work
         rdf:about="">
        <dc:format>image/svg+xml</dc:format>
        <dc:type
           rdf:resource="http://purl.org/dc/dcmitype/StillImage" />
        <dc:title></dc:title>
      </cc:Work>
    </rdf:RDF>
  </metadata>
  <defs
     id="defs22">
    <linearGradient
       gradientTransform="translate(75,-7)"
       id="a-367"
       gradientUnits="userSpaceOnUse"
       x1="14"
       x2="13.79661"
       y1="22"
       y2="2.1355929">
      <stop
         offset="0"
         stop-color="#0040dd"
         id="stop2206" />
      <stop
         offset="1"
         stop-color="#0a84ff"
         id="stop2208" />
    </linearGradient>
    <linearGradient
       inkscape:collect="always"
       xlink:href="#a-367"
       id="linearGradient890"
       x1="16.197517"
       y1="12.062451"
       x2="16.134514"
       y2="2.1249514"
       gradientUnits="userSpaceOnUse" />
    <linearGradient
       inkscape:collect="always"
       xlink:href="#a-367"
       id="linearGradient894"
       gradientUnits="userSpaceOnUse"
       x1="16.197517"
       y1="1.5624514"
       x2="16.009514"
       y2="11.249951"
       gradientTransform="translate(0,-16.001062)" />
  </defs>
  <sodipodi:namedview
     pagecolor="#ffffff"
     bordercolor="#666666"
     borderopacity="1"
     objecttolerance="10"
     gridtolerance="10"
     guidetolerance="10"
     inkscape:pageopacity="0"
     inkscape:pageshadow="2"
     inkscape:window-width="1366"
     inkscape:window-height="706"
     id="namedview20"
     showgrid="true"
     inkscape:snap-global="false"
     inkscape:zoom="2.8284271"
     inkscape:cx="67.993013"
     inkscape:cy="-24.33227"
     inkscape:window-x="0"
     inkscape:window-y="0"
     inkscape:window-maximized="1"
     inkscape:current-layer="svg18">
    <inkscape:grid
       type="xygrid"
       id="grid834"
       spacingx="0.5"
       spacingy="0.5"
       empspacing="2" />
  </sodipodi:namedview>
  <g
     transform="matrix(1 0 0 -1 0 16.000042)"
     id="g16">
    <path
       id="path892"
       d="m 16.023438,-14.001062 a 0.99869039,0.99869039 0 0 0 -0.720704,0.292969 l -5,4.9999999 a 0.99869039,0.99869039 0 0 0 0.707032,1.7050785 H 14 v 2.001953 c 0,0.554 0.446,1 1,1 h 2 c 0.554,0 1,-0.446 1,-1 v -2.001953 h 3.009766 a 0.99869039,0.99869039 0 0 0 0.707031,-1.7050785 l -5,-4.9999999 a 0.99869039,0.99869039 0 0 0 -0.693359,-0.292969 z"
       style="fill:url(#linearGradient894);fill-opacity:1;stroke:none;stroke-width:1.99996603;stroke-linecap:round;stroke-linejoin:round"
       inkscape:connector-curvature="0" />
    <path
       d="m16.0101 5.0118852v7.9762718"
       fill="none"
       stroke="#4d82b8"
       stroke-linecap="round"
       stroke-width="1.997637"
       id="path12" />
    <path
       style="fill:url(#linearGradient890);fill-opacity:1;stroke:none;stroke-width:1.99996603;stroke-linecap:round;stroke-linejoin:round"
       d="M 16.023438 2 A 0.99869039 0.99869039 0 0 0 15.302734 2.2929688 L 10.302734 7.2929688 A 0.99869039 0.99869039 0 0 0 11.009766 8.9980469 L 14 8.9980469 L 14 11 C 14 11.554 14.446 12 15 12 L 17 12 C 17.554 12 18 11.554 18 11 L 18 8.9980469 L 21.009766 8.9980469 A 0.99869039 0.99869039 0 0 0 21.716797 7.2929688 L 16.716797 2.2929688 A 0.99869039 0.99869039 0 0 0 16.023438 2 z "
       transform="matrix(1,0,0,-1,0,16.000042)"
       id="path14" />
  </g>
  <path
     d="m4 13v6h24v-6z"
     fill="#fff"
     id="path2" />
  <path
     d="M 3 13 L 3 19 L 4 19 L 9 19 L 10 19 L 15 19 L 16 19 L 21 19 L 22 19 L 28 19 L 29 19 L 29 13 L 28 13 L 22 13 L 21 13 L 16 13 L 15 13 L 10 13 L 9 13 L 4 13 L 3 13 z M 4 14 L 9 14 L 10 14 L 15 14 L 16 14 L 21 14 L 22 14 L 28 14 L 28 18 L 22 18 L 21 18 L 16 18 L 15 18 L 10 18 L 9 18 L 4 18 L 4 14 z "
     id="path4"
     style="fill:#69696e;fill-opacity:1" />
  <path
     style="fill:#bababa;fill-opacity:1"
     d="M 9 14 L 9 18 L 10 18 L 10 14 L 9 14 z M 15 14 L 15 18 L 16 18 L 16 14 L 15 14 z M 21 14 L 21 18 L 22 18 L 22 14 L 21 14 z "
     id="rect869" />
</svg>
